!!!OTL: Ach schoenster Schatz, mein Augentrost, kann deiner nicht vergessen !
!!!ARE: Europa, Mitteleuropa, Deutschland, Untermainfranken, Spessart
!!!SCT: D0179A
!!!YEM: Copyright 1995, estate of Helmut Schaffrath.
**kern
*ICvox
*Ivox
*M3/4
*k[f#]
*G:
{8d
8g
8a
=1
4b
4b
8a
8a
=2
4g
8r}
{8a
8b
8cc
=3
8dd
8ee
8dd
8b
8cc
8dd
=4
4b
8dd
8r}
{8b
8cc
=5
4dd
8ee
8dd
8cc
8b
=6
4cc
8r}
{8dd
8b
8a
=7
8b
8dd
8cc
8b
8a
8g
=8
4a
8r}
{8d
8g
8b
=9
8dd
8ee
8dd
8b
8cc
8dd
=10
4b
8r}
==
!!!AGN: Liebes - Lied, Liebeslust
!! Inzipit = Variante zum Lied; Variante zu DVA0179
!!!ONB: ESAC (Essen Associative Code) Database: DVA
!!!AMT: simple triple
!!!AIN: vox
!!!EED: Helmut Schaffrath
!!!EEV: 1.0
*-
